icons/svg/format-paragraph.svg

﻿<?xml version="1.0" encoding="utf-8"?>
<!DOCTYPE svg PUBLIC "-//W3C//DTD SVG 1.1//EN" "http://www.w3.org/Graphics/SVG/1.1/DTD/svg11.dtd">
<svg xmlns="http://www.w3.org/2000/svg" xmlns:xlink="http://www.w3.org/1999/xlink" version="1.1" baseProfile="full" width="24" height="24" viewBox="0 0 24.00 24.00" enable-background="new 0 0 24.00 24.00" xml:space="preserve">
	<path fill="#000000" fill-opacity="1" stroke-width="0.2" stroke-linejoin="round" d="M 13,4C 15.2091,4 17,5.79086 17,8C 17,10.2091 15.2091,12 13,12L 11,12L 11,18L 9,18L 9,4L 13,4 Z M 13,10C 14.1046,10 15,9.10458 15,8C 15,6.89544 14.1046,6.00001 13,6.00001L 11,6L 11,10L 13,10 Z "/>
</svg>

<svg xmlns="http://www.w3.org/2000/svg" version="1.1" baseProfile="full" width="24" height="24" viewBox="0 0 24.00 24.00" xml:space="preserve"><path fill="#000" fill-opacity="1" stroke-width=".2" stroke-linejoin="round" d="M13 4c2.21 0 4 1.79 4 4s-1.79 4-4 4h-2v6H9V4h4zm0 6c1.105 0 2-.895 2-2s-.895-2-2-2h-2v4h2z"/></svg>
